X:1
T:Title
%%score 1 { 2 | 3 }
L:1/8
Q:1/4=80
M:2/4
K:C
V:1 treble nm="Grand Piano, Soprano"
V:2 treble nm="Choir Pad, Ring the Bells"
V:3 bass 
V:1
 [EG][Ec] [EG][Ec] | [FA]>[GB] [Ac][Ac] | [GB][Gd] [GB][Fd] | [Ec]>[Fd] [Ge]2 | [EG][Ec] [EG][Ec] | %5
w: By~Theodore~Frelinghuysen~Seward * * *|||||
 [FA]>[GB] [Ac][Ac] | [GB][Gd] [Gd][Gf] | [Ge]2 [Ec]2 | [GB][GB] [GA]G | [^FA]>[GB] [Ac][Ac] | %10
w: |||||
 [Ac][Ac] [GB][^FA] | [GB][ce] [Bd][Ac] | [GB][GB] [GA]G | [^FA]>[GB] [Ac][ce] | %14
w: ||||
 [Bd]>[Ac] [GB][^FA] | [FA]2 G2 | [EG][Ec] [EG][Ec] | [FA]/[FA]/[FA]/[GB]/ [Ac][Ac] | %18
w: ||||
 [GB][Gd] [GB][Fd] | [Ec]>[Fd] [Ge]2 | [EG][Ec] [EG][Ec] | [FA]>[GB] [Ac][Ac] | [GB][Gd] [Gd][Gf] | %23
w: |||||
 [Ge]2 [Ec]2- | [Ec]4 |] %25
w: ||
V:2
 CG, CC | C>C CF | DB, DB, | C2 C2 | CG, CC | C>C CF | DB, B,D | C2 C2 | DD CB, | D>D DD | DD DD | %11
 G,3 G, | G,D CB, | D>D DD | D>D DD | C2 B,2 | CG, CC | C/C/C/C/ CF | DB, DB, | C2 C2 | CG, CC | %21
 C>C CF | DB, B,D | C2 C2- | C4 |] %25
V:3
 C,C, C,C, | F,>F, F,F, | G,G, G,G, | B,,2 B,,2 | C,C, C,C, | F,>F, F,F, | G,G, G,G, | C,2 C,2 | %8
 G,G, G,G, | D,>D, D,D, | D,D, D,D, | z4 | z G, G,G, | D,>D, D,D, | D,>D, D,D, | D,2 G,2 | %16
 C,C, C,C, | F,/F,/F,/F,/ F,F, | G,G, G,G, | C,2 C,2 | C,C, C,C, | F,>F, F,F, | G,G, G,G, | %23
 C,2 C,2- | C,4 |] %25

